!!!!SEGMENT: pl-kk--kk-i-487--012_anonim--zal-dusze-sciska.krn
!!!id: 18xx:1367
!!!COM: Anonim
!!!COM-rism: pe30004985
!!!CDT:
!!!CNT:
!!!OTL: Żal duszę ściska
!!!PDT:
!!!SMS-siglum: PL-Kk
!!!SMS-shelfmark: Kk.I.487
!!!NIFC-rismID: 1001141058
!!!URL-scan: http://repozytorium.nifc.pl/skany/pl-kk-nut--i-487
!!!ONB-nifc:
!!!SMS-variant:
!!!SMS-altvar:
**kern	**text	**kern	**text	**kern	**text	**kern	**text
*part4	*part4	*part3	*part3	*part2	*part2	*part1	*part1
*staff4	*staff4	*staff3	*staff3	*staff2	*staff2	*staff1	*staff1
*I"Bas	*	*I"Tenor.	*	*I"alt.	*	*I"Sopran	*
*I'B	*	*I'T	*	*I'A	*	*I'S	*
*clefF4	*	*clefC4	*	*clefC3	*	*clefC1	*
*k[b-e-]	*	*k[b-e-]	*	*k[b-e-]	*	*k[b-e-]	*
*M4/4	*	*M4/4	*	*M4/4	*	*M4/4	*
*met(c)	*	*met(c)	*	*met(c)	*	*met(c)	*
=1	=1	=1	=1	=1	=1	=1	=1
*2\right	*	*2\right	*	*2\right	*	*2\right	*
!LO:TX:t=P:problem:all\right:global	!	!LO:TX:t=P:problem:all\right:global	!	!LO:TX:t=P:problem:all\right:global	!	!LO:TX:t=P:problem:all\right:global	!
!LO:TX:a:t=2.	!	!LO:TX:a:t=2.	!	!LO:TX:a:t=2.)	!	!LO:TX:a:t=2.	!
!LO:TX:t=P:problem:oznaczenie numeru utworu: "2." przed kluczem	!	!LO:TX:t=P:problem:oznaczenie numeru utworu: "2." przed kluczem	!	!LO:TX:t=P:problem:oznaczenie numeru utworu: "2.)" przed kluczem	!	!LO:TX:t=P:problem:oznaczenie numeru utworu: "2." przed kluczem	!
!	!	!	!	!	!	!LO:TX:t=P:problem:znaki przykluczowe:b-, ee-	!
2G\	Żal	2d\	Żal	2d\	Żal	2b-\	Żal
4.G\	du-	4.B-\	du-	4.d\	du-	4.b-\	du-
8F#X\	-sze	8c\	-sze	8d\	-sze	8a\	-sze
=2	=2	=2	=2	=2	=2	=2	=2
2G\	sci-	2B-\	śći-	(>4d\	sci-	2g\	śći-
.	.	.	.	4g\)	.	.	.
4D\	-ska	4d\	-ska	4f#X\	-ska	4a\	-ska
4r	.	4r	.	4r	.	4r	.
=3	=3	=3	=3	=3	=3	=3	=3
2G\	ser-	2d\	ser-	2g\	ser-	2b-\	ser-
2F#X\	-ce	2d\	-ce	2a\	-ce	2a\	-ce
=4	=4	=4	=4	=4	=4	=4	=4
2G\	bo-	2d\	bo-	2g\	bo-	2b-\	bo-
2C/	-leść	2G/	-leść	2e-\	-leść	2cc\	-lesc
=5	=5	=5	=5	=5	=5	=5	=5
(>4D\	czu-	(>2G\	czu-	(>4d\	czu-	(>4b-\	czu-
4C\	.	.	.	4e-\	.	4a\	.
2D\)	.	4B-\	.	2d\)	.	4g\	.
.	.	4A\)	.	.	.	4f#X\)	.
=6	=6	=6	=6	=6	=6	=6	=6
2G\	-je	2B-\	-je	2d\	-je	2g\	-je
2r	.	2r	.	2r	.	2r	.
!LO:LB:g=original	!	!LO:LB:g=original	!	!LO:LB:g=original	!	!LO:LB:g=original	!
=7	=7	=7	=7	=7	=7	=7	=7
2G\	gdy	2d\	gdy	2g\	gdy	2b-\	gdy
(>4G\	sło-	4.d\	sło-	4.g\	sło-	4.b-\	sło-
8D\)	.	.	.	.	.	.	.
8C/	-dki	8d\	-dki	8f#X\	-dki	8a\	-dki
=8	=8	=8	=8	=8	=8	=8	=8
2BB-/	Je-	2d\	Je-	2g\	Je-	2g\	Je-
4D\	-zus	4d\	-zus	4f#X\	-zus	4a\	-zus
4r	.	4r	.	4r	.	4r	.
=9	=9	=9	=9	=9	=9	=9	=9
2G\	na	2d\	na	2g\	na	2b-\	na
2F#X\	smierć	2c\	smierć	2d\	smierć	2a\	smierć
=10	=10	=10	=10	=10	=10	=10	=10
2G\	się	2B-\	się	2d\	się	2b-\	się
2E-\	go-	2G/	go-	2c\	go-	2cc\	go-
=11	=11	=11	=11	=11	=11	=11	=11
(>4D\	-tu-	(>2G\	tu-	(>4d\	-tu-	(>4b-\	tu-
4C\	.	.	.	4e-\	.	4a\	.
2D\)	.	4B-\	.	2d\)	.	4g\	.
.	.	4A\)	.	.	.	4f#X/)	.
=12	=12	=12	=12	=12	=12	=12	=12
2GG/	-je	2B-\	-je	2d\	-je	2g\	-je
2r	.	2r	.	2r	.	2r	.
=13	=13	=13	=13	=13	=13	=13	=13
(>4G\	klę-	2B-\	klę-	2d\	klę-	2g\	klę-
4D\)	.	.	.	.	.	.	.
2D\	-cząc	2F#X/	-cząc	2d\	-cząc	2a\	-cząc
!LO:LB:g=original	!	!LO:LB:g=original	!	!LO:LB:g=original	!	!LO:LB:g=original	!
=14	=14	=14	=14	=14	=14	=14	=14
2E-\	w O-	2G/	w O-	2c#X\	w O-	2b-\	w O-
2E-\	-groj-	(<4G/	-groj-	2c#\	-groj-	(>4a\	-groj-
.	.	4A/)	.	.	.	4g\)	.
=15	=15	=15	=15	=15	=15	=15	=15
2D\	-cu	2A\	-cu	2d\	-cu	2f#X/	-cu
2r	.	2r	.	2r	.	2r	.
=16	=16	=16	=16	=16	=16	=16	=16
2G\	gdy	2B-\	gdy	2d\	gdy	2g\	gdy
2D\	krwa-	2d\	krwa-	2f#X\	krwa-	2a\	krwa-
=17	=17	=17	=17	=17	=17	=17	=17
2D\	-wy	2G/	-wy	2d\	-wy	2b-\	-wy
2C/	pot	2G/	pot	2e-\	pot	2cc\	pot
=18	=18	=18	=18	=18	=18	=18	=18
2C#X/	le-	2G/	le-	2en\	le-	2b-\	le-
4D\	-je	4F#X/	-je	4d\	-je	4a\	-je
4r	.	4r	.	4r	.	4r	.
=19	=19	=19	=19	=19	=19	=19	=19
2BB-/	me	2Fn/	me	2d\	me	2dd\	me
2AA/	ser-	2F#X/	ser-	2d\	ser-	2cc\	ser-
!	!	!	!	!	!	!LO:LB:g=original	!
=20	=20	=20	=20	=20	=20	=20	=20
*	*	*	*	*^	*	*	*
(<4GG/	-ce	2G/	-ce	2d\	2ryy	-ce	2b-\	-ce
4D/)	.	.	.	.	.	.	.	.
2D\	mdle-	2c\	mdle-	2f#X/	2d\	mdle-	2a\	mdle-
=21	=21	=21	=21	=21	=21	=21	=21	=21
*^	*	*	*	*	*	*	*	*
2G/	2GG\	-je	2B-\	-je	2g/	2d\	-je	2g\	-je
2r	2ryy	.	2r	.	2r	2ryy	.	2r	.
*v	*v	*	*	*	*v	*v	*	*	*
==	==	==	==	==	==	==	==
*-	*-	*-	*-	*-	*-	*-	*-
!!!system-decoration: [(s1,s2,s3,s4)]
!!!RDF**kern: > = above
!!!RDF**kern: < = below
!!!EED: Mateusz Mrugas
!!!EST: 2021-01-19
!!!ENC: Tomasz Grochalski
!!!END: 2021-01-10
